X:15
T:Star of Munster
M:C|
R:reel
C:Traditional
K:Ador
| cBAc BAGB | AGEF GED2 | EAAB cBcd | eaaf gfed |
cBAc BAGB | AGEF GED2 | EAAB cBcd |[1 edcB A2 AB :|[2 edcB A2 eg |
|: (3aaa ab ageg | agab agef | (3ggg ga gede | geae gede |
(3aaa ab ageg | agab agef | (3ggg ge (3aaa ae |[1 bagf gfeg :|[2 bagf gfed |]

%%newpage
%%scale .65
%%staffsep 30

